X:1
T:[ID 5-38a]
T:[ID 5-38a]
T:Bezeichnung standardisiert: Courante Courant In dieser Quelle auch als: Tantz
T:Urheber unbekannt Erstbeleg: 1773 (Datum in der schriftlichen Quelle) Datum in der hier transkribierten schriftlichen Quelle: 1796
C:Urheber unbekannt
C:Erstbeleg: 1773 (Datum in der schriftlichen Quelle)
C:Datum in der hier transkribierten schriftlichen Quelle: 1796
L:1/8
M:2/4
K:D
V:1 treble 
V:1
 f | edcB | A2 G2 | FdEc | d/c/d/e/ df | edcB | A2 G2 | FdEc | d3 :: f/g/ | af f/g/a/f/ | ge e2 | %12
 fe/d/ cd | e/d/c/B/ Af/g/ | af f/g/a/f/ | geeg | fe/d/ e/g/e/c/ | d3 :| %18

